static/images/mobile/copyright/wikipedia-wordmark-mzn.svg

<svg xmlns="http://www.w3.org/2000/svg" width="94" height="32"><path fill="#000" fill-rule="nonzero" d="M11.969 17.201c0 3.061-1.528 4.594-4.585 4.594H4.796c-2.907 0-4.359-2.372-4.359-7.117l.059-2.104.061-1.756C.557 6.107.369 3.1 0 1.794.67 1.057 1.268.457 1.791 0c.413.953.617 6.372.617 16.248 0 1.28.374 2.112 1.118 2.502.487.251 1.42.38 2.798.381l.738-.001c2.307 0 3.463-.419 3.463-1.25 0-.484-.262-1.079-.784-1.791l-.327-.45-.474-.631.946-2.284c.073-.215.15-.334.235-.342.084 0 .211.136.379.413.98 1.478 1.469 2.947 1.469 4.406Zm.606 9.691-1.79 1.787-1.816-1.805 1.816-1.789 1.79 1.807Zm-3.999 0-1.785 1.787-1.797-1.805 1.78-1.789 1.802 1.807Zm27.694-9.688c0 3.062-1.526 4.593-4.583 4.593H29.785c-1.07 0-1.789-.267-2.394-.801-.372-.342-.842-.972-1.411-1.896-.616 1.085-1.423 1.854-2.424 2.301a9.77 9.77 0 0 1-1.432.391l-.849.115h-1.066c-3.245 0-4.866-1.11-4.866-3.33 0-.519.095-1.06.289-1.622.242-.658.543-1.108.904-1.35.109 0 .18.116.217.342l-.056.702-.054.472c0 .889.494 1.521 1.484 1.881.665.155 1.557.234 2.678.234 2.896 0 4.341-.655 4.341-1.963 0-.583-.958-3.11-2.875-7.578.387-.694.821-1.418 1.303-2.182.119.163.21.317.271.473l1.519 3.821 1.645 4.479c.398 1.042.798 1.774 1.195 2.204.444.391 1.147.602 2.109.631l2.332-.018c1.452-.13 2.177-.543 2.177-1.229 0-.503-.527-1.461-1.584-2.872l.508-1.266.675-1.352c.472.324.905 1.063 1.303 2.218.366 1.038.546 1.908.546 2.602Zm-.989 9.139-1.7 1.677-1.718-1.693 1.701-1.677 1.717 1.693Zm-4.124 0-1.698 1.677-1.721-1.693 1.72-1.677 1.699 1.693Zm2.105 3.624-1.72 1.676-1.702-1.694 1.683-1.679 1.739 1.697ZM92.397 16.14c-.765-1.986-1.836-2.982-3.228-2.982-.978 0-1.848.753-2.607 2.253-.668 1.325-.998 2.54-.998 3.656 0 .889.317 1.567.956 2.035.327.229.653.387.979.478.326.091.748.133 1.268.133l3.019-.112v.766c0 .639-.355 1.479-1.065 2.504-.59.869-1.204 1.577-1.844 2.118-1.461 1.296-3.195 2.224-5.21 2.795l-.558.214-.4.201c.055.095.342.185.848.255l.666.126c.122.06.351.09.688.09.29.035.666.055 1.14.055l.998.094 1.066.052c.218 0 .694-.388 1.431-1.157 2.381-2.53 3.568-5.481 3.568-8.854a15.349 15.349 0 0 0-.717-4.72Zm-2.119 2.934-.975.056c-1.531 0-2.295-.527-2.295-1.578v-.344l.088-.321c.113-.237.242-.435.403-.589.437-.357.86-.54 1.278-.54.718 0 1.348.35 1.878 1.05.534.698.806 1.408.806 2.128l-1.183.138ZM73.167 2.927c0 .17-.127.643-.379 1.422l-.378 1.062-1.732.492-2.59.715-1.427.437c-1.123.315-2.629.805-4.521 1.47l2.095 2.195 1.957 2.144 2.259 2.573c.926 1.067 1.738 1.895 2.462 2.49 1.041.799 2.102 1.197 3.187 1.197h.94l.693-.002c2.309 0 3.463-.416 3.463-1.249 0-.48-.26-1.079-.783-1.788l-.327-.452-.476-.634.946-2.281c.074-.217.147-.331.237-.341.084 0 .212.134.38.413.976 1.478 1.465 2.952 1.465 4.411 0 3.06-1.532 4.592-4.589 4.592h-1.897l-.004-.01h-.454c-1.691 0-3.269-.893-4.735-2.698l-.885-1.089-1.101-1.473c0 3.512-2.413 5.259-7.244 5.259h-5.536c-.712 0-1.338.103-1.881.31-.834.278-1.248.671-1.248 1.176 0 .219.572.437 1.719.651l2.242.401.976.203c1.162.252 1.741.627 1.741 1.123 0 1.774-.526 3.128-1.575 4.072-1.735 1.52-4.858 2.28-9.368 2.28-5.403 0-8.104-2-8.104-5.988 0-.796.196-1.816.59-3.057.396-1.237.851-2.135 1.363-2.691.253-.288.465-.435.635-.45.154 0 .234.1.234.297l-.218.666a12.467 12.467 0 0 0-.759 2.031l-.234 1.561-.054.546c0 1.146.437 2.107 1.318 2.881.603.531 1.336.912 2.208 1.145.434.114.899.208 1.393.269.493.063 1.051.093 1.68.093l1.828-.071 1.863-.073 1.459-.114 1.557-.289c1.748-.325 2.624-.841 2.624-1.556 0-.327-.6-.6-1.798-.833l-2.378-.398-.554-.09-.431-.106c-1.215-.349-1.819-.876-1.819-1.578 0-.514.289-1.208.869-2.081 1.049-1.43 2.244-2.322 3.585-2.675l.687-.144.669-.108.56-.073h3.906c4.212-.015 6.311-.877 6.311-2.591 0-.591-.527-1.484-1.572-2.684l-1.214-1.305-.738-.742-.961-.882c-1.048-.985-1.575-1.545-1.592-1.673 0-.632.033-.996.089-1.091.112-.444.32-.827.634-1.14.171-.165.982-.475 2.445-.921Zm6.27 22.158 1.792 1.807-1.792 1.787-1.817-1.805 1.817-1.789Zm-4.012 0 1.806 1.807-1.789 1.787-1.792-1.805 1.775-1.789Z"/></svg>

<?xml version="1.0" encoding="UTF-8"?>
<svg width="94px" height="32px" viewBox="0 0 94 32" version="1.1" xmlns="http://www.w3.org/2000/svg" xmlns:xlink="http://www.w3.org/1999/xlink">
    <title>mzn-wordmark</title>
    <g id="Page-1" stroke="none" stroke-width="1" fill="none" fill-rule="evenodd">
        <path d="M11.969,17.201 C11.969,20.262 10.441,21.795 7.384,21.795 L6.37,21.795 L5.484,21.795 L4.796,21.795 C1.889,21.795 0.437,19.423 0.437,14.678 L0.496,12.574 L0.557,10.818 C0.557,6.107 0.369,3.1 0,1.794 C0.67,1.057 1.268,0.457 1.791,0 C2.204,0.953 2.408,6.372 2.408,16.248 C2.408,17.528 2.782,18.36 3.526,18.75 C4.013,19.001 4.946,19.13 6.324,19.131 L7.062,19.13 C9.369,19.13 10.525,18.711 10.525,17.88 C10.525,17.396 10.263,16.801 9.741,16.089 L9.414,15.639 L8.94,15.008 L9.886,12.724 C9.959,12.509 10.036,12.39 10.121,12.382 C10.205,12.382 10.332,12.518 10.5,12.795 C11.48,14.273 11.969,15.742 11.969,17.201 L11.969,17.201 Z M12.575,26.892 L10.785,28.679 L8.969,26.874 L10.785,25.085 L12.575,26.892 Z M8.576,26.892 L6.791,28.679 L4.994,26.874 L6.774,25.085 L8.576,26.892 Z M36.27,17.204 C36.27,20.266 34.744,21.797 31.687,21.797 L30.577,21.797 L29.785,21.797 C28.715,21.797 27.996,21.53 27.391,20.996 C27.019,20.654 26.549,20.024 25.98,19.1 C25.364,20.185 24.557,20.954 23.556,21.401 C23.217,21.53 22.74,21.664 22.124,21.792 L21.275,21.907 L20.209,21.907 C16.964,21.907 15.343,20.797 15.343,18.577 C15.343,18.058 15.438,17.517 15.632,16.955 C15.874,16.297 16.175,15.847 16.536,15.605 C16.645,15.605 16.716,15.721 16.753,15.947 L16.697,16.649 L16.643,17.121 C16.643,18.01 17.137,18.642 18.127,19.002 C18.792,19.157 19.684,19.236 20.805,19.236 C23.701,19.236 25.146,18.581 25.146,17.273 C25.146,16.69 24.188,14.163 22.271,9.695 C22.658,9.001 23.092,8.277 23.574,7.513 C23.693,7.676 23.784,7.83 23.845,7.986 L25.364,11.807 L27.009,16.286 C27.407,17.328 27.807,18.06 28.204,18.49 C28.648,18.881 29.351,19.092 30.313,19.121 L32.645,19.103 C34.097,18.973 34.822,18.56 34.822,17.874 C34.822,17.371 34.295,16.413 33.238,15.002 L33.746,13.736 L34.421,12.384 C34.893,12.708 35.326,13.447 35.724,14.602 C36.09,15.64 36.27,16.51 36.27,17.204 L36.27,17.204 Z M35.281,26.343 L33.581,28.02 L31.863,26.327 L33.564,24.65 L35.281,26.343 Z M31.157,26.343 L29.459,28.02 L27.738,26.327 L29.458,24.65 L31.157,26.343 Z M33.262,29.967 L31.542,31.643 L29.84,29.949 L31.523,28.27 L33.262,29.967 Z M92.397,16.14 C91.632,14.154 90.561,13.158 89.169,13.158 C88.191,13.158 87.321,13.911 86.562,15.411 C85.894,16.736 85.564,17.951 85.564,19.067 C85.564,19.956 85.881,20.634 86.52,21.102 C86.847,21.331 87.173,21.489 87.499,21.58 C87.825,21.671 88.247,21.713 88.767,21.713 L91.786,21.601 L91.786,22.367 C91.786,23.006 91.431,23.846 90.721,24.871 C90.131,25.74 89.517,26.448 88.877,26.989 C87.416,28.285 85.682,29.213 83.667,29.784 L83.109,29.998 L82.709,30.199 C82.764,30.294 83.051,30.384 83.557,30.454 L84.223,30.58 C84.345,30.64 84.574,30.67 84.911,30.67 C85.201,30.705 85.577,30.725 86.051,30.725 L87.049,30.819 L88.115,30.871 C88.333,30.871 88.809,30.483 89.546,29.714 C91.927,27.184 93.1140768,24.233 93.1140768,20.86 C93.119,19.233 92.88,17.663 92.397,16.14 Z M90.278,19.074 L89.303,19.13 C87.772,19.13 87.008,18.603 87.008,17.552 L87.008,17.208 L87.096,16.887 C87.209,16.65 87.338,16.452 87.499,16.298 C87.936,15.941 88.359,15.758 88.777,15.758 C89.495,15.758 90.125,16.108 90.655,16.808 C91.189,17.506 91.461,18.216 91.461,18.936 L90.278,19.074 Z M73.167,2.927 C73.167,3.097 73.04,3.57 72.788,4.349 L72.41,5.411 L70.678,5.903 L68.088,6.618 L66.661,7.055 C65.538,7.37 64.032,7.86 62.14,8.525 L64.235,10.72 L66.192,12.864 L68.451,15.437 C69.377,16.504 70.189,17.332 70.913,17.927 C71.954,18.726 73.015,19.124 74.1,19.124 L75.04,19.124 L75.733,19.122 C78.042,19.122 79.196,18.706 79.196,17.873 C79.196,17.393 78.936,16.794 78.413,16.085 L78.086,15.633 L77.61,14.999 L78.556,12.718 C78.63,12.501 78.703,12.387 78.793,12.377 C78.877,12.377 79.005,12.511 79.173,12.79 C80.149,14.268 80.638,15.742 80.638,17.201 C80.638,20.261 79.106,21.793 76.049,21.793 L74.152,21.793 L74.148,21.783 L73.694,21.783 C72.003,21.783 70.425,20.89 68.959,19.085 L68.074,17.996 L66.973,16.523 C66.973,20.035 64.56,21.782 59.729,21.782 L54.193,21.782 C53.481,21.782 52.855,21.885 52.312,22.092 C51.478,22.37 51.064,22.763 51.064,23.268 C51.064,23.487 51.636,23.705 52.783,23.919 L55.025,24.32 L56.001,24.523 C57.163,24.775 57.742,25.15 57.742,25.646 C57.742,27.42 57.216,28.774 56.167,29.718 C54.432,31.238 51.309,31.998 46.799,31.998 C41.396,31.998 38.695,29.998 38.695,26.01 C38.695,25.214 38.891,24.194 39.285,22.953 C39.681,21.716 40.136,20.818 40.648,20.262 C40.901,19.974 41.113,19.827 41.283,19.812 C41.437,19.812 41.517,19.912 41.517,20.109 L41.299,20.775 C41.011,21.368 40.757,22.044 40.54,22.806 L40.306,24.367 L40.252,24.913 C40.252,26.059 40.689,27.02 41.57,27.794 C42.173,28.325 42.906,28.706 43.778,28.939 C44.212,29.053 44.677,29.147 45.171,29.208 C45.664,29.271 46.222,29.301 46.851,29.301 L48.679,29.23 L50.542,29.157 L52.001,29.043 L53.558,28.754 C55.306,28.429 56.182,27.913 56.182,27.198 C56.182,26.871 55.582,26.598 54.384,26.365 L52.006,25.967 L51.452,25.877 L51.021,25.771 C49.806,25.422 49.202,24.895 49.202,24.193 C49.202,23.679 49.491,22.985 50.071,22.112 C51.12,20.682 52.315,19.79 53.656,19.437 L54.343,19.293 L55.012,19.185 L55.572,19.112 L59.478,19.112 C63.69,19.097 65.789,18.235 65.789,16.521 C65.789,15.93 65.262,15.037 64.217,13.837 L63.003,12.532 L62.265,11.79 L61.304,10.908 C60.256,9.923 59.729,9.363 59.712,9.235 C59.712,8.603 59.745,8.239 59.801,8.144 C59.913,7.7 60.121,7.317 60.435,7.004 C60.606,6.839 61.417,6.529 62.88,6.083 Z M79.437,25.085 L81.229,26.892 L79.437,28.679 L77.62,26.874 L79.437,25.085 Z M75.425,25.085 L77.231,26.892 L75.442,28.679 L73.65,26.874 L75.425,25.085 Z" id="mzn-wordmark" fill="#000000" fill-rule="nonzero"></path>
    </g>
</svg>
